X:1016
T:Banish Misfortune
Z:Nigel Gatherer
S:Film: Agnes Browne, music by Paddy Moloney
M:4/4
L: 1/8
K:D
e2 | f2 ed cAAG | Addb =cAAG | F2 FD F2 FD | F2 FD G2 GE | 
A2 AB =cAAG | Add^c d2 e2 | f2 ed cAAG | Addc d2 :|
e2 | f2 fd f2 fd | f2 fd fgaf | eA A2 eAfA | eA A2 efge |
f2 fd fgaf | e2 ef g3 e | fded cAAG | Addc d2 :|

